docs/images/OpenSea-Full-Logo (light).svg

<svg fill="none" height="100" viewBox="0 0 437 100" width="437" xmlns="http://www.w3.org/2000/svg"><path d="m100 50c0 27.6127-22.3873 50-50 50s-50-22.3873-50-50 22.3873-50 50-50c27.6185 0 50 22.3873 50 50z" fill="#2081e2"/><g fill="#fff"><path d="m24.6679 51.6801.2157-.3391 13.007-20.3478c.1901-.2979.637-.2671.7808.0565 2.173 4.8699 4.048 10.9265 3.1696 14.6971-.375 1.5514-1.4024 3.6524-2.5583 5.5942-.1489.2826-.3133.56-.488.8271-.0822.1233-.2209.1952-.3699.1952h-13.3768c-.3596 0-.5702-.3904-.3801-.6832z"/><path d="m82.6444 55.461v3.2209c0 .1849-.113.3493-.2774.4212-1.0068.4315-4.4538 2.0137-5.887 4.0069-3.6576 5.0908-6.4521 12.37-12.6988 12.37h-26.0602c-9.2363 0-16.721-7.5103-16.721-16.7776v-.2979c0-.2466.2003-.4469.4469-.4469h14.5276c.2876 0 .4982.2671.4726.5496-.1028.9452.0719 1.911.5188 2.7894.863 1.7518 2.6507 2.846 4.5822 2.846h7.1919v-5.6148h-7.1097c-.3647 0-.5804-.4213-.3698-.7192.077-.1182.1644-.2414.2568-.3801.673-.9555 1.6336-2.4401 2.5891-4.1302.6524-1.1404 1.2842-2.3579 1.7928-3.5805.1028-.2209.1849-.447.2671-.6679.1387-.3904.2826-.7551.3853-1.1198.1028-.3083.1849-.6319.2671-.935.2415-1.0377.3442-2.137.3442-3.2774 0-.4469-.0205-.9144-.0616-1.3613-.0206-.488-.0822-.9761-.1439-1.4641-.0411-.4315-.1181-.8579-.2003-1.3048-.1027-.6524-.2466-1.2996-.411-1.9521l-.0565-.2465c-.1233-.447-.226-.8733-.3698-1.3202-.4059-1.4025-.8733-2.7689-1.3665-4.048-.1798-.5086-.3853-.9966-.5908-1.4846-.303-.7346-.6113-1.4024-.8938-2.0343-.1438-.2877-.2671-.5497-.3904-.8168-.1387-.3031-.2825-.6062-.4264-.8938-.1027-.2209-.2209-.4264-.3031-.6319l-.8784-1.6233c-.1233-.2209.0822-.4829.3236-.4161l5.4967 1.4897h.0154c.0102 0 .0154.0052.0205.0052l.7243.2003.7963.2261.2928.0821v-3.2671c0-1.5771 1.2637-2.8562 2.8254-2.8562.7808 0 1.4897.3185 1.9983.8373.5085.5189.827 1.2278.827 2.0189v4.8494l.5857.1643c.0462.0155.0924.036.1335.0668.1439.1079.3493.2671.6113.4624.2055.1643.4264.3647.6935.5702.5291.4263 1.161.976 1.8545 1.6079.1849.1592.3647.3236.5291.488.8939.8322 1.8956 1.8082 2.8511 2.887.2671.3031.5291.6113.7962.9349.2671.3288.5497.6524.7962.9761.3237.4315.673.8784.9761 1.3459.1438.2209.3082.4469.4469.6678.3904.5907.7346 1.2021 1.0634 1.8134.1387.2825.2825.5907.4058.8938.3647.8168.6524 1.649.8373 2.4812.0565.1798.0976.375.1182.5497v.0411c.0616.2465.0822.5085.1027.7756.0822.8528.0411 1.7055-.1438 2.5634-.0771.3648-.1798.7089-.3031 1.0737-.1233.3493-.2466.714-.4058 1.0582-.3082.714-.673 1.4281-1.1045 2.0959-.1387.2466-.3031.5086-.4675.7552-.1798.2619-.3647.5085-.5291.75-.226.3082-.4674.6318-.714.9195-.2209.3031-.4469.6062-.6935.8733-.3442.4058-.673.7911-1.0172 1.161-.2054.2414-.4263.488-.6524.7089-.2208.2465-.4469.4674-.6524.6729-.3441.3442-.6318.6113-.8733.8322l-.565.5189c-.0822.0719-.1901.113-.3031.113h-4.3768v5.6148h5.5069c1.2329 0 2.4042-.4367 3.3494-1.2381.3236-.2825 1.7363-1.5051 3.4058-3.3493.0565-.0617.1285-.1079.2107-.1284l15.2107-4.3973c.2826-.0822.5702.1335.5702.4315z"/><path d="m148.723 73.9966c-4.52 0-8.675-1.0129-12.464-3.0387-3.744-2.0259-6.735-4.8444-8.972-8.4556-2.191-3.6553-3.287-7.751-3.287-12.287 0-4.5361 1.096-8.6098 3.287-12.221 2.237-3.6112 5.228-6.4298 8.972-8.4556 3.789-2.0258 7.944-3.0387 12.464-3.0387s8.652 1.0129 12.396 3.0387c3.79 2.0258 6.757 4.8444 8.903 8.4556 2.192 3.6112 3.287 7.6849 3.287 12.221 0 4.536-1.095 8.6317-3.287 12.287-2.191 3.6112-5.159 6.4297-8.903 8.4556-3.744 2.0258-7.876 3.0387-12.396 3.0387zm0-10.3053c3.835 0 6.894-1.2331 9.177-3.6993 2.329-2.4662 3.493-5.7251 3.493-9.7767 0-4.0957-1.164-7.3546-3.493-9.7768-2.283-2.4662-5.342-3.6993-9.177-3.6993-3.881 0-6.985 1.2111-9.314 3.6332-2.283 2.4222-3.424 5.7031-3.424 9.8429 0 4.0956 1.141 7.3766 3.424 9.8428 2.329 2.4222 5.433 3.6332 9.314 3.6332z"/><path d="m191.536 41.8918c1.141-1.7175 2.716-3.1048 4.725-4.1617 2.009-1.057 4.36-1.5855 7.054-1.5855 3.15 0 6.004.7707 8.561 2.3121 2.556 1.5414 4.565 3.7434 6.026 6.6059 1.507 2.8626 2.26 6.1876 2.26 9.975s-.753 7.1344-2.26 10.041c-1.461 2.8626-3.47 5.0865-6.026 6.672-2.557 1.5414-5.411 2.312-8.561 2.312-2.648 0-4.999-.5284-7.054-1.5854-2.009-1.0569-3.584-2.4221-4.725-4.0957v16.1185h-11.711v-47.8269h11.711zm16.71 13.1458c0-2.8185-.822-5.0205-2.466-6.6059-1.598-1.6295-3.584-2.4442-5.958-2.4442-2.328 0-4.314.8147-5.958 2.4442-1.598 1.6294-2.397 3.8534-2.397 6.6719 0 2.8186.799 5.0426 2.397 6.672 1.644 1.6295 3.63 2.4442 5.958 2.4442 2.329 0 4.315-.8147 5.958-2.4442 1.644-1.6735 2.466-3.9195 2.466-6.738z"/><path d="m262.329 54.5091c0 1.057-.068 2.1579-.205 3.303h-26.504c.183 2.29.936 4.0516 2.26 5.2847 1.37 1.1891 3.036 1.7836 5 1.7836 2.922 0 4.953-1.1891 6.095-3.5672h12.464c-.639 2.4222-1.803 4.6021-3.493 6.5399-1.643 1.9377-3.721 3.4571-6.232 4.5581-2.511 1.1009-5.319 1.6514-8.423 1.6514-3.744 0-7.077-.7706-9.999-2.312s-5.205-3.7434-6.849-6.606c-1.643-2.8625-2.465-6.2095-2.465-10.041 0-3.8314.799-7.1784 2.397-10.041 1.643-2.8625 3.926-5.0645 6.848-6.6059s6.278-2.3121 10.068-2.3121c3.698 0 6.985.7487 9.861 2.2461 2.877 1.4973 5.114 3.6332 6.712 6.4077 1.644 2.7745 2.465 6.0114 2.465 9.7107zm-11.984-2.9727c0-1.9377-.685-3.4791-2.055-4.6241s-3.082-1.7175-5.136-1.7175c-1.964 0-3.63.5505-5 1.6514-1.324 1.101-2.146 2.6644-2.465 4.6902z"/><path d="m291.793 36.2768c4.474 0 8.035 1.4092 10.683 4.2278 2.694 2.7744 4.041 6.6059 4.041 11.4943v21.5353h-11.643v-20.016c0-2.4662-.662-4.3819-1.986-5.7471-1.324-1.3653-3.104-2.0479-5.341-2.0479-2.238 0-4.018.6826-5.342 2.0479-1.324 1.3652-1.986 3.2809-1.986 5.7471v20.016h-11.711v-36.8611h11.711v4.8884c1.187-1.6295 2.785-2.9066 4.794-3.8314 2.008-.9689 4.268-1.4533 6.78-1.4533z"/><path d="m332.05 73.9966c-3.515 0-6.666-.5505-9.451-1.6515s-5.022-2.7304-6.711-4.8884c-1.644-2.1579-2.512-4.7562-2.603-7.795h12.464c.183 1.7176.799 3.0388 1.85 3.9636 1.05.8808 2.419 1.3212 4.109 1.3212 1.735 0 3.104-.3744 4.109-1.123 1.004-.7927 1.507-1.8717 1.507-3.2369 0-1.1451-.411-2.0919-1.233-2.8406-.776-.7487-1.758-1.3652-2.945-1.8496-1.142-.4845-2.785-1.035-4.931-1.6515-3.105-.9249-5.639-1.8497-7.602-2.7745s-3.652-2.2901-5.068-4.0957c-1.415-1.8056-2.123-4.1617-2.123-7.0683 0-4.3159 1.621-7.6849 4.863-10.1071 3.241-2.4662 7.464-3.6993 12.669-3.6993 5.297 0 9.565 1.2331 12.807 3.6993 3.242 2.4222 4.977 5.8132 5.205 10.1731h-12.67c-.091-1.4973-.662-2.6644-1.712-3.5011-1.05-.8808-2.397-1.3212-4.041-1.3212-1.415 0-2.556.3743-3.424 1.123-.867.7046-1.301 1.7396-1.301 3.1048 0 1.4973.73 2.6644 2.192 3.5011 1.461.8368 3.743 1.7396 6.848 2.7085 3.105 1.0129 5.616 1.9817 7.533 2.9066 1.964.9248 3.653 2.268 5.068 4.0296 1.416 1.7616 2.123 4.0296 2.123 6.8041 0 2.6424-.707 5.0425-2.123 7.2004-1.369 2.158-3.378 3.8755-6.026 5.1527-2.648 1.2771-5.776 1.9157-9.383 1.9157z"/><path d="m392.813 54.5091c0 1.057-.069 2.1579-.206 3.303h-26.504c.183 2.29.936 4.0516 2.26 5.2847 1.37 1.1891 3.037 1.7836 5 1.7836 2.922 0 4.954-1.1891 6.095-3.5672h12.464c-.639 2.4222-1.803 4.6021-3.492 6.5399-1.644 1.9377-3.721 3.4571-6.233 4.5581-2.511 1.1009-5.319 1.6514-8.423 1.6514-3.744 0-7.077-.7706-9.999-2.312s-5.205-3.7434-6.849-6.606c-1.643-2.8625-2.465-6.2095-2.465-10.041 0-3.8314.799-7.1784 2.397-10.041 1.643-2.8625 3.926-5.0645 6.848-6.6059s6.278-2.3121 10.068-2.3121c3.698 0 6.985.7487 9.862 2.2461 2.876 1.4973 5.113 3.6332 6.711 6.4077 1.644 2.7745 2.466 6.0114 2.466 9.7107zm-11.985-2.9727c0-1.9377-.685-3.4791-2.055-4.6241s-3.082-1.7175-5.136-1.7175c-1.963 0-3.63.5505-5 1.6514-1.324 1.101-2.146 2.6644-2.465 4.6902z"/><path d="m396.662 55.0376c0-3.7874.731-7.1124 2.192-9.975 1.506-2.8625 3.538-5.0645 6.095-6.6059s5.41-2.3121 8.561-2.3121c2.693 0 5.045.5285 7.054 1.5855 2.054 1.0569 3.629 2.4442 4.725 4.1617v-5.2187h11.711v36.8611h-11.711v-5.2187c-1.141 1.7175-2.739 3.1048-4.794 4.1617-2.009 1.057-4.36 1.5854-7.054 1.5854-3.105 0-5.935-.7706-8.492-2.312-2.557-1.5855-4.589-3.8094-6.095-6.672-1.461-2.9066-2.192-6.2536-2.192-10.041zm28.627.066c0-2.8185-.822-5.0425-2.465-6.6719-1.598-1.6295-3.562-2.4442-5.89-2.4442-2.329 0-4.315.8147-5.958 2.4442-1.598 1.5854-2.397 3.7874-2.397 6.6059s.799 5.0645 2.397 6.738c1.643 1.6295 3.629 2.4442 5.958 2.4442 2.328 0 4.292-.8147 5.89-2.4442 1.643-1.6294 2.465-3.8534 2.465-6.672z"/></g></svg>

<svg width="437" height="100" viewBox="0 0 437 100" fill="none" xmlns="http://www.w3.org/2000/svg">
<path d="M100 50C100 77.6127 77.6127 100 50 100C22.3873 100 0 77.6127 0 50C0 22.3873 22.3873 0 50 0C77.6185 0 100 22.3873 100 50Z" fill="#2081E2"/>
<path d="M24.6679 51.6801L24.8836 51.341L37.8906 30.9932C38.0807 30.6953 38.5276 30.7261 38.6714 31.0497C40.8444 35.9196 42.7194 41.9762 41.841 45.7468C41.466 47.2982 40.4386 49.3992 39.2827 51.341C39.1338 51.6236 38.9694 51.901 38.7947 52.1681C38.7125 52.2914 38.5738 52.3633 38.4248 52.3633H25.048C24.6884 52.3633 24.4778 51.9729 24.6679 51.6801Z" fill="white"/>
<path d="M82.6444 55.461V58.6819C82.6444 58.8668 82.5314 59.0312 82.367 59.1031C81.3602 59.5346 77.9132 61.1168 76.48 63.11C72.8224 68.2008 70.0279 75.48 63.7812 75.48H37.721C28.4847 75.48 21 67.9697 21 58.7024V58.4045C21 58.1579 21.2003 57.9576 21.4469 57.9576H35.9745C36.2621 57.9576 36.4727 58.2247 36.4471 58.5072C36.3443 59.4524 36.519 60.4182 36.9659 61.2966C37.8289 63.0484 39.6166 64.1426 41.5481 64.1426H48.74V58.5278H41.6303C41.2656 58.5278 41.0499 58.1065 41.2605 57.8086C41.3375 57.6904 41.4249 57.5672 41.5173 57.4285C42.1903 56.473 43.1509 54.9884 44.1064 53.2983C44.7588 52.1579 45.3906 50.9404 45.8992 49.7178C46.002 49.4969 46.0841 49.2708 46.1663 49.0499C46.305 48.6595 46.4489 48.2948 46.5516 47.9301C46.6544 47.6218 46.7365 47.2982 46.8187 46.9951C47.0602 45.9574 47.1629 44.8581 47.1629 43.7177C47.1629 43.2708 47.1424 42.8033 47.1013 42.3564C47.0807 41.8684 47.0191 41.3803 46.9574 40.8923C46.9163 40.4608 46.8393 40.0344 46.7571 39.5875C46.6544 38.9351 46.5105 38.2879 46.3461 37.6354L46.2896 37.3889C46.1663 36.9419 46.0636 36.5156 45.9198 36.0687C45.5139 34.6662 45.0465 33.2998 44.5533 32.0207C44.3735 31.5121 44.168 31.0241 43.9625 30.5361C43.6595 29.8015 43.3512 29.1337 43.0687 28.5018C42.9249 28.2141 42.8016 27.9521 42.6783 27.685C42.5396 27.3819 42.3958 27.0788 42.2519 26.7912C42.1492 26.5703 42.031 26.3648 41.9488 26.1593L41.0704 24.536C40.9471 24.3151 41.1526 24.0531 41.394 24.1199L46.8907 25.6096H46.9061C46.9163 25.6096 46.9215 25.6148 46.9266 25.6148L47.6509 25.8151L48.4472 26.0412L48.74 26.1233V22.8562C48.74 21.2791 50.0037 20 51.5654 20C52.3462 20 53.0551 20.3185 53.5637 20.8373C54.0722 21.3562 54.3907 22.0651 54.3907 22.8562V27.7056L54.9764 27.8699C55.0226 27.8854 55.0688 27.9059 55.1099 27.9367C55.2538 28.0446 55.4592 28.2038 55.7212 28.3991C55.9267 28.5634 56.1476 28.7638 56.4147 28.9693C56.9438 29.3956 57.5757 29.9453 58.2692 30.5772C58.4541 30.7364 58.6339 30.9008 58.7983 31.0652C59.6922 31.8974 60.6939 32.8734 61.6494 33.9522C61.9165 34.2553 62.1785 34.5635 62.4456 34.8871C62.7127 35.2159 62.9953 35.5395 63.2418 35.8632C63.5655 36.2947 63.9148 36.7416 64.2179 37.2091C64.3617 37.43 64.5261 37.656 64.6648 37.8769C65.0552 38.4676 65.3994 39.079 65.7282 39.6903C65.8669 39.9728 66.0107 40.281 66.134 40.5841C66.4987 41.4009 66.7864 42.2331 66.9713 43.0653C67.0278 43.2451 67.0689 43.4403 67.0895 43.615V43.6561C67.1511 43.9026 67.1717 44.1646 67.1922 44.4317C67.2744 45.2845 67.2333 46.1372 67.0484 46.9951C66.9713 47.3599 66.8686 47.704 66.7453 48.0688C66.622 48.4181 66.4987 48.7828 66.3395 49.127C66.0313 49.841 65.6665 50.5551 65.235 51.2229C65.0963 51.4695 64.9319 51.7315 64.7675 51.9781C64.5877 52.24 64.4028 52.4866 64.2384 52.7281C64.0124 53.0363 63.771 53.3599 63.5244 53.6476C63.3035 53.9507 63.0775 54.2538 62.8309 54.5209C62.4867 54.9267 62.1579 55.312 61.8137 55.6819C61.6083 55.9233 61.3874 56.1699 61.1613 56.3908C60.9405 56.6373 60.7144 56.8582 60.5089 57.0637C60.1648 57.4079 59.8771 57.675 59.6356 57.8959L59.0706 58.4148C58.9884 58.4867 58.8805 58.5278 58.7675 58.5278H54.3907V64.1426H59.8976C61.1305 64.1426 62.3018 63.7059 63.247 62.9045C63.5706 62.622 64.9833 61.3994 66.6528 59.5552C66.7093 59.4935 66.7813 59.4473 66.8635 59.4268L82.0742 55.0295C82.3568 54.9473 82.6444 55.163 82.6444 55.461Z" fill="white"/>
<path d="M148.723 73.9966C144.203 73.9966 140.048 72.9837 136.259 70.9579C132.515 68.932 129.524 66.1135 127.287 62.5023C125.096 58.847 124 54.7513 124 50.2153C124 45.6792 125.096 41.6055 127.287 37.9943C129.524 34.3831 132.515 31.5645 136.259 29.5387C140.048 27.5129 144.203 26.5 148.723 26.5C153.243 26.5 157.375 27.5129 161.119 29.5387C164.909 31.5645 167.876 34.3831 170.022 37.9943C172.214 41.6055 173.309 45.6792 173.309 50.2153C173.309 54.7513 172.214 58.847 170.022 62.5023C167.831 66.1135 164.863 68.932 161.119 70.9579C157.375 72.9837 153.243 73.9966 148.723 73.9966ZM148.723 63.6913C152.558 63.6913 155.617 62.4582 157.9 59.992C160.229 57.5258 161.393 54.2669 161.393 50.2153C161.393 46.1196 160.229 42.8607 157.9 40.4385C155.617 37.9723 152.558 36.7392 148.723 36.7392C144.842 36.7392 141.738 37.9503 139.409 40.3724C137.126 42.7946 135.985 46.0755 135.985 50.2153C135.985 54.3109 137.126 57.5919 139.409 60.0581C141.738 62.4803 144.842 63.6913 148.723 63.6913Z" fill="white"/>
<path d="M191.536 41.8918C192.677 40.1743 194.252 38.787 196.261 37.7301C198.27 36.6731 200.621 36.1446 203.315 36.1446C206.465 36.1446 209.319 36.9153 211.876 38.4567C214.432 39.9981 216.441 42.2001 217.902 45.0626C219.409 47.9252 220.162 51.2502 220.162 55.0376C220.162 58.825 219.409 62.172 217.902 65.0786C216.441 67.9412 214.432 70.1651 211.876 71.7506C209.319 73.292 206.465 74.0626 203.315 74.0626C200.667 74.0626 198.316 73.5342 196.261 72.4772C194.252 71.4203 192.677 70.0551 191.536 68.3815V84.5H179.825V36.6731H191.536V41.8918ZM208.246 55.0376C208.246 52.2191 207.424 50.0171 205.78 48.4317C204.182 46.8022 202.196 45.9875 199.822 45.9875C197.494 45.9875 195.508 46.8022 193.864 48.4317C192.266 50.0611 191.467 52.2851 191.467 55.1036C191.467 57.9222 192.266 60.1462 193.864 61.7756C195.508 63.4051 197.494 64.2198 199.822 64.2198C202.151 64.2198 204.137 63.4051 205.78 61.7756C207.424 60.1021 208.246 57.8561 208.246 55.0376Z" fill="white"/>
<path d="M262.329 54.5091C262.329 55.5661 262.261 56.667 262.124 57.8121H235.62C235.803 60.1021 236.556 61.8637 237.88 63.0968C239.25 64.2859 240.916 64.8804 242.88 64.8804C245.802 64.8804 247.833 63.6913 248.975 61.3132H261.439C260.8 63.7354 259.636 65.9153 257.946 67.8531C256.303 69.7908 254.225 71.3102 251.714 72.4112C249.203 73.5121 246.395 74.0626 243.291 74.0626C239.547 74.0626 236.214 73.292 233.292 71.7506C230.37 70.2092 228.087 68.0072 226.443 65.1446C224.8 62.2821 223.978 58.9351 223.978 55.1036C223.978 51.2722 224.777 47.9252 226.375 45.0626C228.018 42.2001 230.301 39.9981 233.223 38.4567C236.145 36.9153 239.501 36.1446 243.291 36.1446C246.989 36.1446 250.276 36.8933 253.152 38.3907C256.029 39.888 258.266 42.0239 259.864 44.7984C261.508 47.5729 262.329 50.8098 262.329 54.5091ZM250.345 51.5364C250.345 49.5987 249.66 48.0573 248.29 46.9123C246.92 45.7673 245.208 45.1948 243.154 45.1948C241.19 45.1948 239.524 45.7453 238.154 46.8462C236.83 47.9472 236.008 49.5106 235.689 51.5364H250.345Z" fill="white"/>
<path d="M291.793 36.2768C296.267 36.2768 299.828 37.686 302.476 40.5046C305.17 43.279 306.517 47.1105 306.517 51.9989V73.5342H294.874V53.5182C294.874 51.052 294.212 49.1363 292.888 47.7711C291.564 46.4058 289.784 45.7232 287.547 45.7232C285.309 45.7232 283.529 46.4058 282.205 47.7711C280.881 49.1363 280.219 51.052 280.219 53.5182V73.5342H268.508V36.6731H280.219V41.5615C281.406 39.932 283.004 38.6549 285.013 37.7301C287.021 36.7612 289.281 36.2768 291.793 36.2768Z" fill="white"/>
<path d="M332.05 73.9966C328.535 73.9966 325.384 73.4461 322.599 72.3451C319.814 71.2441 317.577 69.6147 315.888 67.4567C314.244 65.2988 313.376 62.7005 313.285 59.6617H325.749C325.932 61.3793 326.548 62.7005 327.599 63.6253C328.649 64.5061 330.018 64.9465 331.708 64.9465C333.443 64.9465 334.812 64.5721 335.817 63.8235C336.821 63.0308 337.324 61.9518 337.324 60.5866C337.324 59.4415 336.913 58.4947 336.091 57.746C335.315 56.9973 334.333 56.3808 333.146 55.8964C332.004 55.4119 330.361 54.8614 328.215 54.2449C325.11 53.32 322.576 52.3952 320.613 51.4704C318.65 50.5456 316.961 49.1803 315.545 47.3747C314.13 45.5691 313.422 43.213 313.422 40.3064C313.422 35.9905 315.043 32.6215 318.285 30.1993C321.526 27.7331 325.749 26.5 330.954 26.5C336.251 26.5 340.519 27.7331 343.761 30.1993C347.003 32.6215 348.738 36.0125 348.966 40.3724H336.296C336.205 38.8751 335.634 37.708 334.584 36.8713C333.534 35.9905 332.187 35.5501 330.543 35.5501C329.128 35.5501 327.987 35.9244 327.119 36.6731C326.252 37.3777 325.818 38.4127 325.818 39.7779C325.818 41.2752 326.548 42.4423 328.01 43.279C329.471 44.1158 331.753 45.0186 334.858 45.9875C337.963 47.0004 340.474 47.9692 342.391 48.8941C344.355 49.8189 346.044 51.1621 347.459 52.9237C348.875 54.6853 349.582 56.9533 349.582 59.7278C349.582 62.3702 348.875 64.7703 347.459 66.9282C346.09 69.0862 344.081 70.8037 341.433 72.0809C338.785 73.358 335.657 73.9966 332.05 73.9966Z" fill="white"/>
<path d="M392.813 54.5091C392.813 55.5661 392.744 56.667 392.607 57.8121H366.103C366.286 60.1021 367.039 61.8637 368.363 63.0968C369.733 64.2859 371.4 64.8804 373.363 64.8804C376.285 64.8804 378.317 63.6913 379.458 61.3132H391.922C391.283 63.7354 390.119 65.9153 388.43 67.8531C386.786 69.7908 384.709 71.3102 382.197 72.4112C379.686 73.5121 376.878 74.0626 373.774 74.0626C370.03 74.0626 366.697 73.292 363.775 71.7506C360.853 70.2092 358.57 68.0072 356.926 65.1446C355.283 62.2821 354.461 58.9351 354.461 55.1036C354.461 51.2722 355.26 47.9252 356.858 45.0626C358.501 42.2001 360.784 39.9981 363.706 38.4567C366.628 36.9153 369.984 36.1446 373.774 36.1446C377.472 36.1446 380.759 36.8933 383.636 38.3907C386.512 39.888 388.749 42.0239 390.347 44.7984C391.991 47.5729 392.813 50.8098 392.813 54.5091ZM380.828 51.5364C380.828 49.5987 380.143 48.0573 378.773 46.9123C377.403 45.7673 375.691 45.1948 373.637 45.1948C371.674 45.1948 370.007 45.7453 368.637 46.8462C367.313 47.9472 366.491 49.5106 366.172 51.5364H380.828Z" fill="white"/>
<path d="M396.662 55.0376C396.662 51.2502 397.393 47.9252 398.854 45.0626C400.36 42.2001 402.392 39.9981 404.949 38.4567C407.506 36.9153 410.359 36.1446 413.51 36.1446C416.203 36.1446 418.555 36.6731 420.564 37.7301C422.618 38.787 424.193 40.1743 425.289 41.8918V36.6731H437V73.5342H425.289V68.3155C424.148 70.033 422.55 71.4203 420.495 72.4772C418.486 73.5342 416.135 74.0626 413.441 74.0626C410.336 74.0626 407.506 73.292 404.949 71.7506C402.392 70.1651 400.36 67.9412 398.854 65.0786C397.393 62.172 396.662 58.825 396.662 55.0376ZM425.289 55.1036C425.289 52.2851 424.467 50.0611 422.824 48.4317C421.226 46.8022 419.262 45.9875 416.934 45.9875C414.605 45.9875 412.619 46.8022 410.976 48.4317C409.378 50.0171 408.579 52.2191 408.579 55.0376C408.579 57.8561 409.378 60.1021 410.976 61.7756C412.619 63.4051 414.605 64.2198 416.934 64.2198C419.262 64.2198 421.226 63.4051 422.824 61.7756C424.467 60.1462 425.289 57.9222 425.289 55.1036Z" fill="white"/>
</svg>
